X: 4044
T: Miss Hay of Yester's    Reel
%R: reel
B: Niel Gow & Sons "A Fourth Collection of Strathspey Reels, etc." v.4 p.4 #4 (and top 2 staffs of p.5)
Z: 2022 John Chambers <jc:trillian.mit.edu>
M: C|
L: 1/8
K: D
% - - - - - - - - - -
% Voice 1 reformatted for 2 6-bar lines, for compactness and proofreading.
V: 1 staves=2
|:\
d2fd e2ge | fafd cecA | d2fd e2ge | faAc d2D2 :|\
D2FD AFdB | AFED CECA, |
D2FD AFdB | AFGE D2D2 ||\
D2(F/E/D) AFdB | AFED CECA, | D2(F/E/D) AFdA | Bgec d2D2 |]
% - - - - - - - - - -
% Voice 2 preserves the staff layout in the book.
V: 2 clef=bass middle=d
|:\
d2d2 A2A2 | d2D2 A2A2 | d2d2 A2A2 | d2A2 D2D2 :|\
[d2D2][d2D2] [d2D2][d2D2] | [d2D2][d2D2] [A2A,2][A2A,2] | [d2D2][d2D2] [d2D2][g2G2] |
a2A2 d2d2 ||
[d2D2][d2D2] [d2D2][g2G2] | [f2F2][d2D2] [A2A,2][A2A,2] |\
[d2D2][d2D2] [d2D2][f2F2] | [g2G2][a2A2] [d2D2][d2D2] |]


